source/img/src/repeat-grey.svg

<!DOCTYPE svg PUBLIC "-//W3C//DTD SVG 1.1//EN" "http://www.w3.org/Graphics/SVG/1.1/DTD/svg11.dtd">
<!-- Uploaded to: SVG Repo, www.svgrepo.com, Transformed by: SVG Repo Mixer Tools -->
<svg fill="#5c6870" width="800px" height="800px" viewBox="0 0 32 32" version="1.1" xmlns="http://www.w3.org/2000/svg">
<g id="SVGRepo_bgCarrier" stroke-width="0"/>
<g id="SVGRepo_tracerCarrier" stroke-linecap="round" stroke-linejoin="round"/>
<g id="SVGRepo_iconCarrier"> <title>repeat</title> <path d="M0 21.984v-8q0-2.464 1.76-4.224t4.256-1.76h8v-1.984q0-0.672 0.352-1.152t0.896-0.704 1.12-0.096 1.024 0.512l4 4q0.608 0.64 0.608 1.44t-0.608 1.408l-4 4q-0.448 0.448-1.056 0.544t-1.12-0.128-0.864-0.704-0.352-1.12v-2.016h-8q-0.832 0-1.44 0.608t-0.576 1.408v8q0 0.832 0.576 1.408t1.44 0.576h20q0.8 0 1.408-0.576t0.576-1.408v-8q0-0.832-0.576-1.408t-1.408-0.608h-0.384q0.704-1.984 0-4h0.384q2.464 0 4.224 1.76t1.76 4.224v8q0 2.496-1.76 4.256t-4.224 1.76h-20q-2.496 0-4.256-1.76t-1.76-4.256z"/> </g>
</svg>

<svg fill="#5c6870" width="800" height="800" viewBox="0 0 32 32" xmlns="http://www.w3.org/2000/svg"><path d="M0 21.984v-8Q0 11.52 1.76 9.76T6.016 8h8V6.016q0-.672.352-1.152t.896-.704 1.12-.096 1.024.512l4 4q.608.64.608 1.44t-.608 1.408l-4 4q-.448.448-1.056.544t-1.12-.128-.864-.704-.352-1.12V12h-8q-.832 0-1.44.608T4 14.016v8q0 .832.576 1.408t1.44.576h20q.8 0 1.408-.576T28 22.016v-8q0-.832-.576-1.408T26.016 12h-.384q.704-1.984 0-4h.384q2.464 0 4.224 1.76T32 13.984v8q0 2.496-1.76 4.256T26.016 28h-20Q3.52 28 1.76 26.24T0 21.984z"/></svg>
